src/fileIcons/FileIconExe/FileIconExe_size_m.svg

<svg viewBox="0 0 30 40" xmlns="http://www.w3.org/2000/svg">
  <path
    d="M28 0H2C0.89543 0 0 0.89543 0 2V38C0 39.1046 0.89543 40 2 40H28C29.1046 40 30 39.1046 30 38V2C30 0.89543 29.1046 0 28 0Z"
  />
  <g opacity="0.6">
    <path
      fill-rule="evenodd"
      clip-rule="evenodd"
      d="M13.0532 17H11.3887L10.8974 18.3383C10.2635 18.5403 9.69066 18.8836 9.21417 19.332L7.83221 19.0972L7 20.5694L7.8893 21.6735C7.81936 21.9931 7.78246 22.3255 7.78246 22.6667C7.78246 23.0078 7.81936 23.3402 7.88931 23.6599L7.00005 24.7639L7.83227 26.2361L9.21417 26.0013C9.69066 26.4498 10.2635 26.793 10.8974 26.995L11.3887 28.3333H13.0532L13.5445 26.995C14.1784 26.793 14.7512 26.4498 15.2277 26.0014L16.6096 26.2361L17.4418 24.7639L16.5526 23.6599C16.6225 23.3402 16.6594 23.0079 16.6594 22.6667C16.6594 22.3255 16.6225 21.9931 16.5526 21.6735L17.4419 20.5695L16.6097 19.0972L15.2277 19.332C14.7512 18.8836 14.1784 18.5403 13.5445 18.3383L13.0532 17ZM14.4402 22.6667C14.4402 23.9185 13.4466 24.9333 12.2209 24.9333C10.9953 24.9333 10.0017 23.9185 10.0017 22.6667C10.0017 21.4148 10.9953 20.4 12.2209 20.4C13.4466 20.4 14.4402 21.4148 14.4402 22.6667Z"
      fill="#fff"
    />
    <path
      fill-rule="evenodd"
      clip-rule="evenodd"
      d="M18.3239 24.9333H19.4335L19.8515 26.2141C20.3416 26.3669 20.7838 26.632 21.1491 26.9801L22.4451 26.7093L23 27.6907L22.1228 28.701C22.1783 28.9471 22.2076 29.2034 22.2076 29.4667C22.2076 29.7299 22.1783 29.9862 22.1228 30.2323L23 31.2426L22.4452 32.2241L21.1491 31.9532C20.7838 32.3013 20.3417 32.5664 19.8515 32.7192L19.4335 34H18.3239L17.9059 32.7192C17.4158 32.5665 16.9737 32.3013 16.6083 31.9532L15.3123 32.2241L14.7575 31.2426L15.6346 30.2323C15.5791 29.9862 15.5498 29.7299 15.5498 29.4667C15.5498 29.2034 15.5791 28.9471 15.6346 28.701L14.7575 27.6907L15.3123 26.7092L16.6084 26.9801C16.9737 26.632 17.4158 26.3669 17.9059 26.2141L18.3239 24.9333ZM19.9883 29.4667C19.9883 30.0926 19.4915 30.6 18.8787 30.6C18.2659 30.6 17.7691 30.0926 17.7691 29.4667C17.7691 28.8407 18.2659 28.3333 18.8787 28.3333C19.4915 28.3333 19.9883 28.8407 19.9883 29.4667Z"
      fill="#fff"
    />
  </g>
  <path
    fill-rule="evenodd"
    clip-rule="evenodd"
    d="M9.7 12C9.11333 12 8.68333 11.8767 8.41 11.63C8.13667 11.3767 8 10.9667 8 10.4V8.6C8 8.02667 8.12333 7.61667 8.37 7.37C8.61667 7.12333 9.02667 7 9.6 7H10.57C11.0433 7 11.4 7.13333 11.64 7.4C11.8867 7.66 12.01 8.04333 12.01 8.55V10H9.01V10.35C9.01 10.5567 9.07333 10.7167 9.2 10.83C9.32667 10.9433 9.51333 11 9.76 11H11.51V12H9.7ZM11.01 8.6C11.01 8.42667 10.9533 8.28333 10.84 8.17C10.7267 8.05667 10.5833 8 10.41 8H9.66C9.42 8 9.25 8.05667 9.15 8.17C9.05667 8.27667 9.01 8.43667 9.01 8.65V9H11.01V8.6Z"
    fill="#fff"
  />
  <path
    fill-rule="evenodd"
    clip-rule="evenodd"
    d="M19.69 12C19.1033 12 18.6733 11.8767 18.4 11.63C18.1267 11.3767 17.99 10.9667 17.99 10.4V8.6C17.99 8.02667 18.1133 7.61667 18.36 7.37C18.6067 7.12333 19.0167 7 19.59 7H20.56C21.0333 7 21.39 7.13333 21.63 7.4C21.8767 7.66 22 8.04333 22 8.55V10H19V10.35C19 10.5567 19.0633 10.7167 19.19 10.83C19.3167 10.9433 19.5033 11 19.75 11H21.5V12H19.69ZM21 8.6C21 8.42667 20.9433 8.28333 20.83 8.17C20.7167 8.05667 20.5733 8 20.4 8H19.65C19.41 8 19.24 8.05667 19.14 8.17C19.0467 8.27667 19 8.43667 19 8.65V9H21V8.6Z"
    fill="#fff"
  />
  <path
    d="M13 12H14V10.5L15 10L16 10.5V12H17V10H16V9H17V7H16V8.5L15 9L14 8.5V7H13V9H14V10H13V12Z"
    fill="#fff"
  />
</svg>

<svg viewBox="0 0 30 40" xmlns="http://www.w3.org/2000/svg">
  <path d="M28 0H2a2 2 0 00-2 2v36a2 2 0 002 2h26a2 2 0 002-2V2a2 2 0 00-2-2z" />
  <g fill="#fff" fill-rule="evenodd" clip-rule="evenodd" opacity=".6">
    <path
      d="M13.455 18h-1.5l-.443 1.18a3.996 3.996 0 00-1.517.878L8.75 19.85 8 21.15l.801.974a4.014 4.014 0 000 1.752L8 24.85l.75 1.3 1.245-.208c.43.396.946.699 1.517.877L11.955 28h1.5l.443-1.18a3.996 3.996 0 001.517-.878l1.245.207.75-1.299-.801-.974a4.017 4.017 0 000-1.752l.801-.974-.75-1.3-1.245.208a3.996 3.996 0 00-1.517-.877L13.455 18zm1.25 5a2 2 0 11-4 0 2 2 0 014 0z"
    />
    <path
      d="M18.205 25h1l.377 1.13c.442.135.84.369 1.17.676l1.167-.239.5.866-.79.891a3.008 3.008 0 010 1.351l.79.892-.5.866-1.168-.239c-.329.307-.727.541-1.17.676L19.206 33h-1l-.377-1.13a2.997 2.997 0 01-1.169-.676l-1.168.239-.5-.866.79-.891a3.008 3.008 0 010-1.352l-.79-.891.5-.866 1.168.239c.33-.307.728-.541 1.17-.676l.376-1.13zm1.5 4a1 1 0 11-2 0 1 1 0 012 0z"
    />
  </g>
  <path
    fill="#fff"
    fill-rule="evenodd"
    d="M9.7 12c-.587 0-1.017-.123-1.29-.37-.273-.253-.41-.663-.41-1.23V8.6c0-.573.123-.983.37-1.23S9.027 7 9.6 7h.97c.473 0 .83.133 1.07.4.247.26.37.643.37 1.15V10h-3v.35c0 .207.063.367.19.48.127.113.313.17.56.17h1.75v1H9.7zm1.31-3.4a.583.583 0 00-.6-.6h-.75c-.24 0-.41.057-.51.17-.093.107-.14.267-.14.48V9h2v-.4zM19.69 12c-.587 0-1.017-.123-1.29-.37-.273-.253-.41-.663-.41-1.23V8.6c0-.573.123-.983.37-1.23S19.017 7 19.59 7h.97c.473 0 .83.133 1.07.4.247.26.37.643.37 1.15V10h-3v.35c0 .207.063.367.19.48.127.113.313.17.56.17h1.75v1h-1.81zM21 8.6a.583.583 0 00-.6-.6h-.75c-.24 0-.41.057-.51.17-.093.107-.14.267-.14.48V9h2v-.4z"
    clip-rule="evenodd"
  />
  <path
    fill="#fff"
    d="M13 12h1v-1.5l1-.5 1 .5V12h1v-2h-1V9h1V7h-1v1.5L15 9l-1-.5V7h-1v2h1v1h-1v2z"
  />
</svg>
